X:187
T:Paddy Wack
M:6/8
L:1/8
B:Thompson's Compleat Collection of 200 Favourite Country Dances, vol. 3 (London, 1773)
Z:Transcribed and edited by Flynn Titford-Mock, 2007
Z:abc's:AK/Fiddler's Companion
K:G
GBd gfg | edc BAG | GBd gfg | fdd d2 e/f/ | geg fdf | ece dBd | cBc ABc | BGG G3 :|
|: BcB ccc | dcB A2G | Bcd efg | fdd d2 e/f/ | geg fdf | ece dcB | cBc ABc | BGG G3 :|

